X:1
T:Title
%%score ( 1 2 ) ( 3 4 )
L:1/8
Q:1/4=100
M:4/4
K:A
V:1 treble nm="Midi_20"
V:2 treble 
V:3 bass nm="Midi_20"
V:4 bass 
V:1
"^St Brannock (77. 77. 77)""^E. J. Hopkins\n(1818-1901)""^F. S. Pierpoint\n(1835-1917)""^For the beauty of the earth" E2 E2 A3 G | %1
w: |
 A2 B2 G4 || F2 G2 A3 A | B2 d2 c4 || A2 B2 c2 e2 | ^d3 c (c2 B2) || c2 G2 A2 G2 | F2 F2 E4 || %8
w: |||||||
[M:4/4] B2 B2 G2 B2 | e3 d c4 || d2 F2 G2 A2 | c6 B2 | A8 |] %13
w: ||This our sa- cri-|fice of|praise.|
V:2
 C2 D2 E2 E2 | E2 F2 E4 || F2 E2 E2 C2 | F2 E2 E4 || A2 E2 E2 C2 | ^D2 E2 F4 || E2 E2 C^D E2 | %7
w: |||||||
 E2 ^D2 E4 ||[M:4/4] F2 ^D2 E2 G2 | A2 E2 E4 || F3 E D2 ^D2 | (E2 A2) G4 | A8 |] %13
w: |||This our sa- cri-|fice * of|praise.|
V:3
 A,2 G,2 A,3 B, | A,2 D2 B,4 || A,2 B,2 A,3 A, | A,2 G,2 A,4 || E2 D2 C2 C2 | A,3 A, A,4 || %6
w: ||||||
 G,2 C2 A,2 B,2 | C2 B,2 G,4 || %8
w: ||
[M:4/4]"^1. For the beauty of the earth,\nFor the beauty of the skies,\nFor the love which, from our birth,\nOver and around us lies.\nR: Christ, our God, to Thee we raise\nThis our sacrifice of praise:\n\n2. For the beauty of each hour\nOf the day and of the night,\nHill and vale, and tree and flower,\nSun and moon and stars of light:\nR:\n\n3. For the joy of ear and eye,\nFor the heart and mind's delight,\nFor the mystic harmony\nLinking sense to sound and sight:\nR:" B,2 B,2 B,2 =D2 | %9
w: |
 C2 B,2 A,4 || %10
w: |
"^4. For the joy of human love,\nBrother, sister, parent, child,\nFriends on earth and friends above,\nFor all gentle thoughts and mild:\nR:\n\n5. For each perfect gift of Thine\nTo our race so freely given, \nGraces human and divine,\nFlowers of earth and buds of heaven:\nR:\n\n" A,4 B,4 | %11
w: This our|
 A,2 C2 E2 D2 | C8 |] %13
w: sa- cri- fice of|praise.|
V:4
 A,,2 B,,2 C,3 D, | C,2 D,2 E,4 || E,2 D,2 C,2 F,2 | D,2 E,2 A,4 || C2 B,2 A,2 G,2 | %5
w: |||||
 F,2 E,2 ^D,4 || E,2 C,2 F,2 G,2 | A,2 B,2 E,4 ||[M:4/4] ^D,2 B,,2 E,2 E,2 | F,2 G,2 A,4 || %10
w: |||||
 D,3 C, B,,2 F,2 | E,4 E,4 | [A,,A,]8 |] %13
w: This our sa- cri-|fice of|praise.|

